X:249
T:The Felton Rag
C:Charles Bolton, 1984
L:1/4
M:2/2
S:Colin Hume's website,  colinhume.com  - chords can also be printed below the stave.
Q:1/2=120
H:A Wedding Present for John and Liz
K:D
P:A
|: A "A7"_AG | "D"FA BA- | "G"Ad- de | "D"fd BA- |\
"D"Ad- de | "G7"=fd BA- | "C7"A=c- cd | "F"A=F "Bb"DF- | "F"=F :|
P:B
K:F
z "C"AB | "F"c2 c2 | "Bb"f2 d2 | "F"cA FA- | "F"A4 | "F"cd cA | "Bb"GF GA- | "F"A4- | "F"A2 AB |
"F"c2 c2 | "Bb"f2 d2 | "F"cA FA- | "F"A4 | "F"cd c_A- | "Bb7"_AF G2 | "A7"A4 |[K:D]zA "A7"_AG |
"D"FA BA- | "G"Ad- de | "D"fd BA- | "D"Ad- de | "G7"=fd Bd- | "A7"d2e2 | "D"d4- | "D"d |]

